Numix-GalliumOS/64/mimetypes/application-x-php.svg

<svg xmlns="http://www.w3.org/2000/svg" xmlns:xlink="http://www.w3.org/1999/xlink" width="64px" height="64px" viewBox="0 0 64 64" version="1.1">
<g id="surface1">
<path style=" stroke:none;fill-rule:nonzero;fill:rgb(35.294118%,40.784314%,64.313725%);fill-opacity:1;" d="M 10.671875 0 C 9.296875 0 8 1.355469 8 2.789062 L 8 61.210938 C 8 62.566406 9.375 64 10.671875 64 L 53.328125 64 C 54.625 64 56 62.566406 56 61.210938 L 56 18 L 38 0 Z M 10.671875 0 "/>
<path style=" stroke:none;fill-rule:nonzero;fill:rgb(0%,0%,0%);fill-opacity:0.196078;" d="M 42 18 L 56 32 L 56 18 Z M 42 18 "/>
<path style=" stroke:none;fill-rule:nonzero;fill:rgb(100%,100%,100%);fill-opacity:0.392157;" d="M 38 0 L 55.984375 18 L 40.757812 18 C 39.410156 18 38 16.574219 38 15.226562 Z M 38 0 "/>
<path style=" stroke:none;fill-rule:evenodd;fill:rgb(100%,100%,100%);fill-opacity:1;" d="M 48 37 C 48 43.078125 40.835938 48 32 48 C 23.164062 48 16 43.078125 16 37 C 16 30.921875 23.164062 26 32 26 C 40.835938 26 48 30.921875 48 37 Z M 48 37 "/>
<path style=" stroke:none;fill-rule:nonzero;fill:rgb(35.294118%,40.784314%,64.313725%);fill-opacity:1;" d="M 27.507812 32.921875 C 28.1875 32.921875 28.726562 33.164062 29.125 33.648438 C 29.515625 34.132812 29.71875 34.800781 29.71875 35.664062 C 29.71875 36.515625 29.554688 37.347656 29.234375 38.136719 C 28.914062 38.925781 28.476562 39.546875 27.921875 40.015625 C 27.367188 40.472656 26.757812 40.707031 26.085938 40.707031 C 25.695312 40.707031 25.367188 40.625 25.085938 40.457031 C 24.804688 40.296875 24.546875 40.015625 24.304688 39.609375 L 24.25 39.609375 C 24.195312 40.328125 24.09375 40.980469 23.945312 41.59375 L 23.445312 43.875 L 21.335938 43.875 L 23.734375 33.066406 L 25.34375 33.066406 L 25.226562 34.203125 L 25.289062 34.203125 C 25.929688 33.347656 26.671875 32.921875 27.507812 32.921875 M 26.664062 34.566406 C 26.34375 34.566406 26.03125 34.710938 25.734375 35.019531 C 25.4375 35.316406 25.203125 35.71875 25.023438 36.226562 C 24.84375 36.726562 24.757812 37.28125 24.757812 37.894531 C 24.757812 38.25 24.84375 38.539062 25.015625 38.757812 C 25.1875 38.964844 25.421875 39.078125 25.726562 39.078125 C 26.039062 39.078125 26.34375 38.917969 26.625 38.613281 C 26.914062 38.304688 27.140625 37.878906 27.3125 37.347656 C 27.492188 36.796875 27.578125 36.265625 27.578125 35.742188 C 27.578125 34.953125 27.273438 34.566406 26.664062 34.566406 "/>
<path style=" stroke:none;fill-rule:nonzero;fill:rgb(35.294118%,40.784314%,64.313725%);fill-opacity:1;" d="M 35.078125 40.570312 L 32.96875 40.570312 L 33.929688 36.1875 C 34 35.878906 34.039062 35.613281 34.039062 35.386719 C 34.039062 34.839844 33.789062 34.566406 33.28125 34.566406 C 32.851562 34.566406 32.460938 34.816406 32.109375 35.332031 C 31.757812 35.839844 31.484375 36.546875 31.28125 37.46875 L 30.601562 40.570312 L 28.484375 40.570312 L 30.804688 30.125 L 32.914062 30.125 C 32.726562 30.933594 32.585938 31.550781 32.492188 31.988281 C 32.390625 32.421875 32.195312 33.117188 31.890625 34.066406 L 31.945312 34.066406 C 32.234375 33.71875 32.554688 33.445312 32.914062 33.238281 C 33.265625 33.027344 33.679688 32.921875 34.148438 32.921875 C 34.789062 32.921875 35.289062 33.117188 35.640625 33.488281 C 35.992188 33.855469 36.171875 34.390625 36.171875 35.089844 C 36.171875 35.414062 36.117188 35.816406 36.007812 36.300781 L 35.078125 40.570312 "/>
<path style=" stroke:none;fill-rule:nonzero;fill:rgb(35.294118%,40.784314%,64.313725%);fill-opacity:1;" d="M 40.460938 32.921875 C 41.140625 32.921875 41.679688 33.164062 42.070312 33.648438 C 42.46875 34.132812 42.664062 34.800781 42.664062 35.664062 C 42.664062 36.515625 42.507812 37.347656 42.179688 38.136719 C 41.867188 38.925781 41.429688 39.546875 40.875 40.015625 C 40.3125 40.472656 39.703125 40.707031 39.039062 40.707031 C 38.648438 40.707031 38.3125 40.625 38.03125 40.457031 C 37.75 40.296875 37.492188 40.015625 37.257812 39.609375 L 37.195312 39.609375 C 37.140625 40.328125 37.039062 40.980469 36.898438 41.59375 L 36.390625 43.875 L 34.28125 43.875 L 36.679688 33.066406 L 38.289062 33.066406 L 38.171875 34.203125 L 38.234375 34.203125 C 38.882812 33.347656 39.625 32.921875 40.460938 32.921875 M 39.609375 34.566406 C 39.289062 34.566406 38.984375 34.710938 38.6875 35.019531 C 38.390625 35.316406 38.148438 35.71875 37.96875 36.226562 C 37.789062 36.726562 37.703125 37.28125 37.703125 37.894531 C 37.703125 38.25 37.789062 38.539062 37.960938 38.757812 C 38.132812 38.964844 38.375 39.078125 38.679688 39.078125 C 38.992188 39.078125 39.289062 38.917969 39.578125 38.613281 C 39.859375 38.304688 40.085938 37.878906 40.265625 37.347656 C 40.4375 36.796875 40.53125 36.265625 40.53125 35.742188 C 40.53125 34.953125 40.21875 34.566406 39.609375 34.566406 "/>
</g>
</svg>

<svg xmlns="http://www.w3.org/2000/svg" viewBox="0 0 64 64">
 <g>
  <path d="m 10.672 0 c -1.375 0 -2.672 1.355 -2.672 2.789 l 0 58.42 c 0 1.355 1.375 2.789 2.672 2.789 l 42.656 0 c 1.297 0 2.672 -1.434 2.672 -2.789 l 0 -43.21 l -18 -18 m -27.328 0" style="fill:#5a68a3;fill-opacity:1;stroke:none;fill-rule:nonzero"/>
  <path d="m 42 18 l 14 14 l 0 -14 m -14 0" style="fill:#000;fill-opacity:0.196;stroke:none;fill-rule:nonzero"/>
  <path d="m 38 0 l 17.984 18 l -15.227 0 c -1.348 0 -2.758 -1.426 -2.758 -2.773 m 0 -15.227" style="fill:#fff;fill-opacity:0.392;stroke:none;fill-rule:nonzero"/>
  <path d="m 48 37 c 0 6.078 -7.164 11 -16 11 c -8.836 0 -16 -4.922 -16 -11 c 0 -6.078 7.164 -11 16 -11 c 8.836 0 16 4.922 16 11 m 0 0" style="fill:#fff;fill-opacity:1;stroke:none;fill-rule:evenodd"/>
  <path d="m 27.508 32.922 c 0.68 0 1.219 0.242 1.617 0.727 c 0.391 0.484 0.594 1.152 0.594 2.02 c 0 0.852 -0.164 1.684 -0.484 2.473 c -0.32 0.789 -0.758 1.41 -1.313 1.879 c -0.555 0.457 -1.164 0.691 -1.836 0.691 c -0.391 0 -0.719 -0.082 -1 -0.25 c -0.281 -0.16 -0.539 -0.441 -0.781 -0.848 l -0.055 0 c -0.055 0.719 -0.156 1.371 -0.305 1.984 l -0.5 2.281 l -2.109 0 l 2.398 -10.809 l 1.609 0 l -0.117 1.137 l 0.063 0 c 0.641 -0.855 1.383 -1.281 2.219 -1.281 m -0.844 1.645 c -0.32 0 -0.633 0.145 -0.93 0.453 c -0.297 0.297 -0.531 0.699 -0.711 1.207 c -0.18 0.5 -0.266 1.055 -0.266 1.668 c 0 0.355 0.086 0.645 0.258 0.863 c 0.172 0.207 0.406 0.32 0.711 0.32 c 0.313 0 0.617 -0.16 0.898 -0.465 c 0.289 -0.309 0.516 -0.734 0.688 -1.266 c 0.18 -0.551 0.266 -1.082 0.266 -1.605 c 0 -0.789 -0.305 -1.176 -0.914 -1.176" style="fill:#5a68a3;fill-opacity:1;stroke:none;fill-rule:nonzero"/>
  <path d="m 35.08 40.57 l -2.109 0 l 0.961 -4.383 c 0.07 -0.309 0.109 -0.574 0.109 -0.801 c 0 -0.547 -0.25 -0.82 -0.758 -0.82 c -0.43 0 -0.82 0.25 -1.172 0.766 c -0.352 0.508 -0.625 1.215 -0.828 2.137 l -0.68 3.102 l -2.117 0 l 2.32 -10.445 l 2.109 0 c -0.188 0.809 -0.328 1.426 -0.422 1.863 c -0.102 0.434 -0.297 1.129 -0.602 2.078 l 0.055 0 c 0.289 -0.348 0.609 -0.621 0.969 -0.828 c 0.352 -0.211 0.766 -0.316 1.234 -0.316 c 0.641 0 1.141 0.195 1.492 0.566 c 0.352 0.367 0.531 0.902 0.531 1.602 c 0 0.324 -0.055 0.727 -0.164 1.211 l -0.93 4.27" style="fill:#5a68a3;fill-opacity:1;stroke:none;fill-rule:nonzero"/>
  <path d="m 40.461 32.922 c 0.68 0 1.219 0.242 1.609 0.727 c 0.398 0.484 0.594 1.152 0.594 2.02 c 0 0.852 -0.156 1.684 -0.484 2.473 c -0.313 0.789 -0.75 1.41 -1.305 1.879 c -0.563 0.457 -1.172 0.691 -1.836 0.691 c -0.391 0 -0.727 -0.082 -1.01 -0.25 c -0.281 -0.16 -0.539 -0.441 -0.773 -0.848 l -0.063 0 c -0.055 0.719 -0.156 1.371 -0.297 1.984 l -0.508 2.281 l -2.109 0 l 2.398 -10.809 l 1.609 0 l -0.117 1.137 l 0.063 0 c 0.648 -0.855 1.391 -1.281 2.227 -1.281 m -0.852 1.645 c -0.32 0 -0.625 0.145 -0.922 0.453 c -0.297 0.297 -0.539 0.699 -0.719 1.207 c -0.18 0.5 -0.266 1.055 -0.266 1.668 c 0 0.355 0.086 0.645 0.258 0.863 c 0.172 0.207 0.414 0.32 0.719 0.32 c 0.313 0 0.609 -0.16 0.898 -0.465 c 0.281 -0.309 0.508 -0.734 0.688 -1.266 c 0.172 -0.551 0.266 -1.082 0.266 -1.605 c 0 -0.789 -0.313 -1.176 -0.922 -1.176" style="fill:#5a68a3;fill-opacity:1;stroke:none;fill-rule:nonzero"/>
 </g>
</svg>
